flaticon/education/book-2.svg

<svg xmlns="http://www.w3.org/2000/svg" width="32" height="32" viewBox="0 0 24 24">
    <path d="M 10.800781 8.800781 L 20.398438 8.800781 C 20.640625 8.800781 20.800781 8.640625 20.800781 8.398438 L 20.800781 2 C 20.800781 1.761719 20.640625 1.601562 20.398438 1.601562 L 10.800781 1.601562 C 10.558594 1.601562 10.398438 1.761719 10.398438 2 L 10.398438 8.398438 C 10.398438 8.640625 10.558594 8.800781 10.800781 8.800781 Z M 11.199219 2.398438 L 20 2.398438 L 20 8 L 11.199219 8 Z M 11.199219 2.398438"/>
    <path d="M14.398438 4.800781L16.800781 4.800781C17.039062 4.800781 17.199219 4.640625 17.199219 4.398438 17.199219 4.160156 17.039062 4 16.800781 4L14.398438 4C14.160156 4 14 4.160156 14 4.398438 14 4.640625 14.160156 4.800781 14.398438 4.800781zM18 5.601562L13.199219 5.601562C12.960938 5.601562 12.800781 5.761719 12.800781 6 12.800781 6.238281 12.960938 6.398438 13.199219 6.398438L18 6.398438C18.238281 6.398438 18.398438 6.238281 18.398438 6 18.398438 5.761719 18.238281 5.601562 18 5.601562zM9.601562 22.398438L21.601562 22.398438C21.839844 22.398438 22 22.238281 22 22 22 21.761719 21.839844 21.601562 21.601562 21.601562L9.601562 21.601562C9.359375 21.601562 9.199219 21.761719 9.199219 22 9.199219 22.238281 9.359375 22.398438 9.601562 22.398438zM9.601562 22.398438"/>
    <path d="M 23.601562 0 L 9.199219 0 C 8.078125 0 7.199219 0.878906 7.199219 2 L 7.199219 10.660156 C 6.8125 10.773438 6.457031 10.875 6.160156 10.960938 C 5.558594 11.121094 5 11.398438 4.519531 11.800781 C 4.320312 11.960938 4.078125 12.121094 3.839844 12.238281 C 3.199219 12.601562 2.679688 13.160156 2.441406 13.878906 C 2.441406 13.960938 2.398438 14.078125 2.359375 14.160156 L 0.28125 14.839844 C 0.121094 14.878906 0 15.039062 0 15.199219 L 0 19.601562 C 0 19.839844 0.160156 20 0.398438 20 L 0.921875 20 C 1.921875 20 3.558594 20.28125 4.519531 20.558594 C 5.039062 20.71875 5.558594 20.800781 6.078125 20.800781 L 7.199219 20.800781 L 7.199219 22 C 7.199219 23.121094 8.078125 24 9.199219 24 L 23.601562 24 C 23.839844 24 24 23.839844 24 23.601562 L 24 0.398438 C 24 0.160156 23.839844 0 23.601562 0 Z M 8 2 C 8 1.320312 8.519531 0.800781 9.199219 0.800781 L 23.199219 0.800781 L 23.199219 20 L 9.199219 20 C 9.171875 20 9.140625 20 9.113281 20.003906 C 8.695312 20.019531 8.3125 20.160156 8 20.390625 L 8 15.71875 C 8 15.613281 8.007812 15.511719 8.023438 15.410156 C 8.042969 15.285156 8.074219 15.164062 8.117188 15.046875 C 8.160156 14.929688 8.214844 14.820312 8.277344 14.714844 C 8.328125 14.632812 8.386719 14.554688 8.449219 14.480469 C 8.464844 14.460938 8.484375 14.445312 8.5 14.425781 C 8.714844 14.195312 8.996094 14.015625 9.320312 13.921875 L 11.28125 13.320312 C 11.578125 13.21875 11.859375 13.070312 12.109375 12.878906 C 12.359375 12.691406 12.578125 12.460938 12.761719 12.199219 C 12.828125 12.085938 12.882812 11.972656 12.925781 11.851562 C 12.953125 11.773438 12.972656 11.691406 12.992188 11.609375 C 13.007812 11.53125 13.019531 11.449219 13.023438 11.367188 C 13.023438 11.328125 13.027344 11.285156 13.023438 11.246094 C 13.019531 10.921875 12.921875 10.601562 12.71875 10.320312 C 12.699219 10.289062 12.675781 10.257812 12.652344 10.226562 C 12.636719 10.203125 12.617188 10.183594 12.601562 10.164062 C 12.597656 10.160156 12.59375 10.152344 12.585938 10.148438 C 12.4375 9.972656 12.261719 9.839844 12.066406 9.746094 C 12.03125 9.710938 11.992188 9.675781 11.921875 9.640625 C 11.601562 9.519531 11.238281 9.519531 10.921875 9.601562 C 10.359375 9.761719 9.71875 9.917969 9.078125 10.078125 C 9.042969 10.09375 9.003906 10.117188 8.972656 10.148438 C 8.652344 10.230469 8.328125 10.316406 8 10.398438 Z M 11.601562 10.601562 C 11.601562 10.878906 11.199219 11.199219 10.601562 11.199219 C 10.160156 11.199219 9.800781 11 9.679688 10.800781 C 9.722656 10.785156 9.769531 10.773438 9.8125 10.761719 C 10.316406 10.621094 10.785156 10.496094 11.160156 10.398438 C 11.214844 10.390625 11.269531 10.382812 11.320312 10.382812 C 11.40625 10.378906 11.488281 10.390625 11.566406 10.410156 C 11.597656 10.484375 11.601562 10.523438 11.601562 10.601562 Z M 6.039062 20 C 5.601562 20 5.160156 19.921875 4.71875 19.800781 C 3.71875 19.519531 2.039062 19.199219 0.921875 19.199219 L 0.800781 19.199219 L 0.800781 15.480469 L 2.640625 14.878906 C 3 14.761719 3.078125 14.519531 3.199219 14.121094 C 3.359375 13.601562 3.71875 13.199219 4.199219 12.960938 C 4.480469 12.800781 4.761719 12.640625 5 12.441406 C 5.441406 12.121094 5.878906 11.878906 6.398438 11.71875 C 7.042969 11.535156 7.964844 11.269531 8.878906 11.019531 C 9.101562 11.601562 9.785156 12 10.601562 12 C 11.324219 12 11.941406 11.683594 12.230469 11.191406 C 12.242188 11.359375 12.199219 11.539062 12.078125 11.71875 C 11.839844 12.121094 11.480469 12.398438 11.039062 12.519531 L 9.078125 13.121094 C 7.960938 13.480469 7.199219 14.519531 7.199219 15.679688 L 7.199219 20 Z M 23.199219 23.199219 L 9.199219 23.199219 C 8.519531 23.199219 8 22.679688 8 22 C 8 21.320312 8.519531 20.800781 9.199219 20.800781 L 23.199219 20.800781 Z M 23.199219 23.199219"/>
</svg>

<svg xmlns="http://www.w3.org/2000/svg" width="32" height="32" viewBox="0 0 24 24">
    <path d="M10.8 8.8h9.598c.243 0 .403-.16.403-.402V2c0-.238-.16-.398-.403-.398h-9.597c-.242 0-.403.16-.403.398v6.398c0 .243.16.403.403.403zm.4-6.402H20V8h-8.8zm0 0"/>
    <path d="M14.398 4.8h2.403c.238 0 .398-.16.398-.402 0-.238-.16-.398-.398-.398h-2.403c-.238 0-.398.16-.398.398 0 .243.16.403.398.403zm0 0M18 5.602h-4.8c-.24 0-.4.16-.4.398 0 .238.16.398.4.398H18c.238 0 .398-.16.398-.398 0-.238-.16-.398-.398-.398zm0 0M9.602 22.398h12c.238 0 .398-.16.398-.398 0-.238-.16-.398-.398-.398h-12c-.243 0-.403.16-.403.398 0 .238.16.398.403.398zm0 0"/>
    <path d="M23.602 0H9.199c-1.12 0-2 .879-2 2v8.66c-.386.113-.742.215-1.039.3-.601.161-1.16.438-1.64.84-.2.16-.442.321-.68.438-.64.364-1.16.922-1.399 1.64a.77.77 0 0 1-.082.282l-2.078.68c-.16.039-.281.2-.281.36v4.402c0 .238.16.398.398.398h.524c1 0 2.637.281 3.598.559.52.16 1.039.242 1.558.242H7.2V22c0 1.121.88 2 2 2h14.403c.238 0 .398-.16.398-.398V.398C24 .16 23.84 0 23.602 0zM8 2C8 1.32 8.52.8 9.2.8h14V20h-14c-.028 0-.06 0-.087.004-.418.016-.8.156-1.113.387v-4.672a2.014 2.014 0 0 1 .117-.672c.043-.117.098-.227.16-.332.051-.082.11-.16.172-.235.016-.02.035-.035.051-.054.215-.23.496-.41.82-.504l1.961-.602a2.998 2.998 0 0 0 1.48-1.121c.067-.113.122-.226.165-.347.027-.079.047-.16.066-.243.016-.078.028-.16.031-.242 0-.039.004-.082 0-.12a1.6 1.6 0 0 0-.304-.927c-.02-.03-.043-.062-.067-.093-.015-.024-.035-.043-.05-.063-.004-.004-.008-.012-.016-.016a1.556 1.556 0 0 0-.52-.402.512.512 0 0 0-.144-.105 1.684 1.684 0 0 0-1-.04c-.563.16-1.203.317-1.844.477a.356.356 0 0 0-.105.07c-.32.082-.645.168-.973.25zm3.602 8.602c0 .277-.403.597-1 .597-.442 0-.801-.199-.922-.398.043-.016.09-.028.133-.04.503-.14.972-.265 1.347-.363.055-.007.11-.015.16-.015a.85.85 0 0 1 .246.027.407.407 0 0 1 .036.192zM6.039 20a5.01 5.01 0 0 1-1.32-.2c-1-.28-2.68-.6-3.797-.6H.8v-3.72l1.84-.601c.359-.117.437-.36.558-.758.16-.52.52-.922 1-1.16.281-.16.563-.32.801-.52a4.67 4.67 0 0 1 1.398-.722c.645-.184 1.567-.45 2.48-.7.224.583.907.981 1.724.981.722 0 1.34-.316 1.628-.809a.828.828 0 0 1-.152.528 1.72 1.72 0 0 1-1.039.8l-1.96.602a2.701 2.701 0 0 0-1.88 2.559V20zm17.16 3.2h-14C8.52 23.2 8 22.68 8 22c0-.68.52-1.2 1.2-1.2h14zm0 0"/>
</svg>
